X:265
T:
R:polska
S:Ur en samling tillhörig skolläraren S. P. Dalström, Hejde.
O:Gotland, Hejde
M:3/4
L:1/16
K:Dm
A2A2 Adfe d2^c2|d2de fefg a4|gbag fagf egfe|dfaf ed^c=B =B2A2|
A2A2 Adfe d^c=BA|d^cde fefg a4|gbag fagf egfe|dfA^c e4 d4::
a2ab c'2c'a c'2c'a|f2fa c'bab b2ag|a2ab c'2c'a c'2c'a|f2fa c'bab b2ag|
A2A2 Adfe d2^c2|d2de fefg a4|gbag fagf egfe|dfA^c e3d d4:|

